X:1
T:Marche.
T:01- Marche
T:Helm 1/1 (BWV Anh. 122)
T:Carl Philipp Emmanuel Bach
T:Carl Philipp Emmanuel Bach
T:Carl Philipp Emmanuel Bach
T:4 Pieces for Anna Magdalena Bach
T:in D Major
C:Helm 111 (BWV Anh. 122)
%%score { 1 | 2 }
L:1/8
M:2/2
K:D
V:1 treble nm="Piano" snm="Pno."
V:2 bass 
V:1
 A2 | d2 A4 Bc | d2 A4 Bc | defg agfe | f2 d4 fe | f2 d4 BA | B^G e2- edcB | A3 d{c} TB3 A | %8
 A2 EA cAce | a6 :: e2 | a2 e4 f^g | a2 e4 f^g | a2 =gf efge | f2 d2- dAB=c | Bdef gB^cd | %16
 cefg acde | dgba gfed | c2 A4 dA | BAGF GBeB | cABc defg | a2 d2 fedc | d2 Ad fdfa | d'6 |] %24
V:2
 z2 | D,2 G,2 F,2 E,2 | D,2 G,2 F,2 E,2 | F,2 D,2 C,2 A,,2 | D,,2 D,C, D,2 D,,2 | %5
 D,,2 D,C, D,2 D,,2 | D,,2 D,C, D,2 D,,2 | C,,2 F,,2 D,,2 E,,2 | A,,2 A,,A,, A,,A,,A,,A,, | %9
 A,,2 E,2 A,2 :: z2 | A,2 D2 C2 B,2 | A,2 D2 C2 B,2 | A,2 B,2 C2 A,2 | D2 D,E, F,2 D,2 | %15
 G,2 z2 z2 ^G,2 | A,2 z2 z2 ^A,2 | B,2 G,2 E,2 G,2 | A,A,,A,G, F,E,F,D, | G,,2 z2 z2 G,2 | %20
 A,2 z2 z2 G,2 | F,2 B,2 G,2 A,2 | D,2 D,,D,, D,,D,,D,,D,, | D,,2 A,,2 D,2 |] %24

